src/assets/barrel-icon.svg

<svg width="26" height="26" viewBox="0 0 26 26" fill="none" xmlns="http://www.w3.org/2000/svg">
<path d="M23.3594 13C23.3055 13 23.2538 12.9715 23.2157 12.9207C23.1777 12.8699 23.1562 12.801 23.1562 12.7292V11.6458C23.1562 11.574 23.1777 11.5051 23.2157 11.4543C23.2538 11.4035 23.3055 11.375 23.3594 11.375C23.4132 11.375 23.4649 11.4035 23.503 11.4543C23.5411 11.5051 23.5625 11.574 23.5625 11.6458V12.7292C23.5625 12.801 23.5411 12.8699 23.503 12.9207C23.4649 12.9715 23.4132 13 23.3594 13Z" fill="#EFEFEF"/>
<path d="M24.0365 11.7812H22.6823C22.5925 11.7812 22.5064 11.7384 22.4429 11.6623C22.3794 11.5861 22.3438 11.4827 22.3438 11.375C22.3438 11.2673 22.3794 11.1639 22.4429 11.0877C22.5064 11.0116 22.5925 10.9688 22.6823 10.9688H24.0365C24.1262 10.9688 24.2124 11.0116 24.2758 11.0877C24.3393 11.1639 24.375 11.2673 24.375 11.375C24.375 11.4827 24.3393 11.5861 24.2758 11.6623C24.2124 11.7384 24.1262 11.7812 24.0365 11.7812Z" fill="#EFEFEF"/>
<path d="M24.8151 15.8437H23.3255C23.2268 15.8437 23.132 15.8057 23.0622 15.738C22.9924 15.6703 22.9531 15.5784 22.9531 15.4826V14.7604H21.0911C20.9924 14.7604 20.8977 14.7224 20.8278 14.6546C20.758 14.5869 20.7188 14.4951 20.7188 14.3993C20.7188 14.3035 20.758 14.2117 20.8278 14.144C20.8977 14.0762 20.9924 14.0382 21.0911 14.0382H23.3255C23.4243 14.0382 23.519 14.0762 23.5888 14.144C23.6587 14.2117 23.6979 14.3035 23.6979 14.3993V15.1215H24.4427V14.0382C24.4427 13.8466 24.3642 13.6629 24.2246 13.5275C24.0849 13.3921 23.8954 13.316 23.6979 13.316H21.0911C20.9924 13.316 20.8977 13.2779 20.8278 13.2102C20.758 13.1425 20.7188 13.0506 20.7188 12.9549C20.7188 12.8591 20.758 12.7672 20.8278 12.6995C20.8977 12.6318 20.9924 12.5938 21.0911 12.5938H23.6979C24.093 12.5938 24.4719 12.7459 24.7512 13.0168C25.0306 13.2877 25.1875 13.6551 25.1875 14.0382V15.4826C25.1875 15.5784 25.1483 15.6703 25.0784 15.738C25.0086 15.8057 24.9139 15.8437 24.8151 15.8437Z" fill="#EFEFEF"/>
<path d="M16.6563 4.17026C13.584 3.48491 10.3847 3.48491 7.3125 4.17026V18.9835C8.84255 19.3299 10.4109 19.5033 11.9844 19.5C13.5579 19.5033 15.1262 19.3299 16.6563 18.9835V4.17026Z" fill="#F2C247"/>
<path d="M3.3561 5.76925C3.07632 5.92817 2.84438 6.15492 2.68326 6.42702C2.52213 6.69913 2.43742 7.00716 2.4375 7.32061V15.8356C2.43742 16.1491 2.52213 16.4571 2.68326 16.7292C2.84438 17.0013 3.07632 17.2281 3.3561 17.387C3.97408 17.7306 4.61755 18.0295 5.28125 18.2813V4.875C4.61755 5.12678 3.97408 5.42569 3.3561 5.76925Z" fill="#F2C247"/>
<path d="M20.6126 5.76856C19.9946 5.42528 19.3512 5.12661 18.6875 4.875V18.2813C19.3513 18.0294 19.9949 17.7305 20.613 17.387C20.8927 17.228 21.1245 17.0013 21.2856 16.7293C21.4466 16.4572 21.5313 16.1493 21.5312 15.8359V7.32032C21.5314 7.0068 21.4467 6.69868 21.2856 6.4265C21.1245 6.15432 20.8925 5.92751 20.6126 5.76856Z" fill="#F2C247"/>
<path d="M11.9831 15.0312C10.5313 15.0331 9.08041 14.9698 7.63618 14.8417C7.54129 14.8334 7.45406 14.7928 7.3937 14.7288C7.33333 14.6647 7.30477 14.5825 7.3143 14.5001C7.32383 14.4178 7.37066 14.3421 7.4445 14.2897C7.51834 14.2374 7.61314 14.2126 7.70803 14.2209C10.55 14.4674 13.4132 14.4674 16.2552 14.2209C16.3024 14.2161 16.3503 14.2194 16.396 14.2308C16.4417 14.2422 16.4844 14.2613 16.5215 14.2871C16.5586 14.3129 16.5895 14.3448 16.6123 14.381C16.6351 14.4172 16.6494 14.457 16.6543 14.498C16.6592 14.539 16.6548 14.5805 16.6411 14.62C16.6274 14.6595 16.6048 14.6963 16.5747 14.7282C16.5445 14.7601 16.5073 14.7864 16.4653 14.8058C16.4233 14.8251 16.3773 14.837 16.3299 14.8408C14.8857 14.9692 13.4348 15.0328 11.9831 15.0312Z" fill="#141414"/>
<path d="M16.2766 8.93458C16.2646 8.93448 16.2526 8.93354 16.2407 8.93177C13.4051 8.56202 10.5483 8.56202 7.71264 8.93177C7.66552 8.93897 7.61777 8.9339 7.57216 8.91685C7.52655 8.89979 7.48399 8.8711 7.44695 8.83244C7.40991 8.79378 7.37913 8.7459 7.35638 8.69161C7.33363 8.63731 7.31938 8.57766 7.31444 8.51612C7.30951 8.45458 7.31399 8.39238 7.32763 8.33312C7.34127 8.27386 7.3638 8.21871 7.3939 8.17089C7.42401 8.12307 7.4611 8.08352 7.50301 8.05453C7.54493 8.02554 7.59084 8.00769 7.63809 8.00202C10.5232 7.62433 13.4301 7.62433 16.3153 8.00202C16.4103 8.00822 16.4996 8.06342 16.5635 8.15546C16.6273 8.24751 16.6606 8.36887 16.6558 8.49284C16.651 8.61682 16.6087 8.73325 16.5381 8.81653C16.4676 8.89981 16.3745 8.94311 16.2794 8.93692L16.2766 8.93458Z" fill="#141414"/>
<path d="M18.606 14.625C18.5245 14.6249 18.4461 14.5951 18.3861 14.5415C18.3262 14.4878 18.2892 14.4142 18.2824 14.3353C18.2756 14.2563 18.2995 14.1778 18.3495 14.1152C18.3994 14.0526 18.4717 14.0105 18.552 13.9973C18.9157 13.9372 19.2345 13.8769 19.514 13.8193C19.5983 13.802 19.6863 13.8179 19.7585 13.8637C19.8308 13.9094 19.8814 13.9812 19.8992 14.0632C19.9171 14.1452 19.9007 14.2308 19.8536 14.301C19.8066 14.3713 19.7328 14.4205 19.6485 14.4379C19.3625 14.4967 19.034 14.5589 18.6606 14.6206C18.6425 14.6234 18.6243 14.6249 18.606 14.625Z" fill="#141414"/>
<path d="M19.582 9.34375C19.5593 9.3437 19.5366 9.34148 19.5144 9.33711C19.2358 9.27957 18.9159 9.21919 18.5521 9.15912C18.4671 9.14512 18.3912 9.09885 18.3413 9.03049C18.2914 8.96213 18.2714 8.87728 18.2858 8.79461C18.3002 8.71194 18.3478 8.63822 18.4181 8.58966C18.4884 8.5411 18.5756 8.52169 18.6607 8.53569C19.0342 8.59892 19.3629 8.65962 19.649 8.71842C19.7274 8.7347 19.797 8.77863 19.8441 8.84175C19.8913 8.90488 19.9128 8.98274 19.9045 9.06036C19.8962 9.13797 19.8587 9.20986 19.7991 9.26217C19.7396 9.31449 19.6622 9.34355 19.582 9.34375Z" fill="#141414"/>
<path d="M5.36277 14.625C5.34448 14.6249 5.32622 14.6234 5.30817 14.6206C4.93478 14.5574 4.60623 14.4967 4.32026 14.4379C4.23592 14.4205 4.16213 14.3713 4.11511 14.301C4.06809 14.2308 4.0517 14.1452 4.06954 14.0632C4.08738 13.9812 4.13799 13.9094 4.21024 13.8637C4.28249 13.8179 4.37046 13.802 4.45479 13.8193C4.7333 13.8769 5.05307 13.9372 5.41671 13.9973C5.49703 14.0105 5.56932 14.0526 5.61926 14.1152C5.66921 14.1778 5.69316 14.2563 5.68637 14.3353C5.67958 14.4142 5.64256 14.4878 5.58263 14.5415C5.5227 14.5951 5.44423 14.6249 5.36277 14.625Z" fill="#141414"/>
<path d="M4.38392 9.34375C4.30438 9.34355 4.22772 9.31459 4.1687 9.26244C4.10968 9.2103 4.07247 9.13865 4.06423 9.06129C4.05599 8.98393 4.07731 8.90633 4.12407 8.84341C4.17083 8.78049 4.23974 8.73671 4.31754 8.72048C4.60112 8.66187 4.92692 8.5998 5.29719 8.53836C5.33976 8.52936 5.38375 8.5289 5.4265 8.537C5.46926 8.54509 5.50989 8.56157 5.54595 8.58545C5.58201 8.60933 5.61274 8.6401 5.63629 8.67592C5.65985 8.71173 5.67573 8.75185 5.68299 8.79383C5.69025 8.83582 5.68873 8.87881 5.67852 8.9202C5.66832 8.9616 5.64964 9.00054 5.62361 9.03468C5.59758 9.06882 5.56474 9.09744 5.52709 9.11883C5.48943 9.14021 5.44773 9.15391 5.4045 9.1591C5.0439 9.21897 4.72777 9.27915 4.45063 9.3365C4.42869 9.34105 4.40635 9.34347 4.38392 9.34375Z" fill="#141414"/>
<path d="M16.25 19.5C16.1423 19.5 16.0389 19.4621 15.9627 19.3945C15.8866 19.327 15.8438 19.2354 15.8438 19.1399V4.01634C15.8438 3.92083 15.8866 3.82925 15.9627 3.76172C16.0389 3.69419 16.1423 3.65625 16.25 3.65625C16.3577 3.65625 16.4611 3.69419 16.5373 3.76172C16.6134 3.82925 16.6562 3.92083 16.6562 4.01634V19.1399C16.6562 19.2354 16.6134 19.327 16.5373 19.3945C16.4611 19.4621 16.3577 19.5 16.25 19.5Z" fill="#EFEFEF"/>
<path d="M7.71875 19.5C7.61101 19.5 7.50767 19.4621 7.43149 19.3945C7.3553 19.327 7.3125 19.2354 7.3125 19.1399V4.01634C7.3125 3.92083 7.3553 3.82925 7.43149 3.76172C7.50767 3.69419 7.61101 3.65625 7.71875 3.65625C7.82649 3.65625 7.92983 3.69419 8.00601 3.76172C8.0822 3.82925 8.125 3.92083 8.125 4.01634V19.1399C8.125 19.2354 8.0822 19.327 8.00601 19.3945C7.92983 19.4621 7.82649 19.5 7.71875 19.5Z" fill="#EFEFEF"/>
<path d="M18.6875 18.6875C18.5798 18.6875 18.4764 18.649 18.4002 18.5804C18.3241 18.5118 18.2812 18.4188 18.2812 18.3219V4.42812C18.2812 4.33116 18.3241 4.23816 18.4002 4.16959C18.4764 4.10102 18.5798 4.0625 18.6875 4.0625C18.7952 4.0625 18.8986 4.10102 18.9748 4.16959C19.0509 4.23816 19.0938 4.33116 19.0938 4.42812V18.3219C19.0938 18.4188 19.0509 18.5118 18.9748 18.5804C18.8986 18.649 18.7952 18.6875 18.6875 18.6875Z" fill="#EFEFEF"/>
<path d="M5.28125 18.6875C5.17351 18.6875 5.07017 18.649 4.99399 18.5804C4.9178 18.5118 4.875 18.4188 4.875 18.3219V4.42812C4.875 4.33116 4.9178 4.23816 4.99399 4.16959C5.07017 4.10102 5.17351 4.0625 5.28125 4.0625C5.38899 4.0625 5.49233 4.10102 5.56851 4.16959C5.6447 4.23816 5.6875 4.33116 5.6875 4.42812V18.3219C5.6875 18.4188 5.6447 18.5118 5.56851 18.5804C5.49233 18.649 5.38899 18.6875 5.28125 18.6875Z" fill="#EFEFEF"/>
<path d="M19.9504 22.3437H16.3295C16.2335 22.3437 16.1414 22.3052 16.0734 22.2367C16.0055 22.1681 15.9674 22.0751 15.9674 21.9781C15.9674 21.6872 15.8529 21.4082 15.6492 21.2025C15.4455 20.9968 15.1692 20.8812 14.8811 20.8812H9.08764C8.79954 20.8812 8.52324 20.9968 8.31952 21.2025C8.11581 21.4082 8.00136 21.6872 8.00136 21.9781C8.00136 22.0751 7.96321 22.1681 7.8953 22.2367C7.8274 22.3052 7.7353 22.3437 7.63927 22.3437H4.01834C3.92231 22.3437 3.83021 22.3052 3.7623 22.2367C3.6944 22.1681 3.65625 22.0751 3.65625 21.9781V19.0531C3.65625 18.9562 3.6944 18.8632 3.7623 18.7946C3.83021 18.726 3.92231 18.6875 4.01834 18.6875C4.11438 18.6875 4.20647 18.726 4.27438 18.7946C4.34229 18.8632 4.38043 18.9562 4.38043 19.0531V21.6125H7.31338C7.39736 21.1998 7.6197 20.829 7.9429 20.5626C8.26611 20.2962 8.67041 20.1505 9.08764 20.15H14.8811C15.2983 20.1505 15.7026 20.2962 16.0258 20.5626C16.3491 20.829 16.5714 21.1998 16.6554 21.6125H19.5883V19.0531C19.5883 18.9562 19.6265 18.8632 19.6944 18.7946C19.7623 18.726 19.8544 18.6875 19.9504 18.6875C20.0464 18.6875 20.1385 18.726 20.2064 18.7946C20.2744 18.8632 20.3125 18.9562 20.3125 19.0531V21.9781C20.3125 22.0751 20.2744 22.1681 20.2064 22.2367C20.1385 22.3052 20.0464 22.3437 19.9504 22.3437Z" fill="#EFEFEF"/>
</svg>

<svg xmlns="http://www.w3.org/2000/svg" width="26" height="26" fill="none" viewBox="0 0 26 26">
    <path fill="#EFEFEF" d="M23.36 13a.182.182 0 0 1-.144-.08.323.323 0 0 1-.06-.19v-1.084c0-.072.022-.14.06-.192.038-.05.09-.079.143-.079.054 0 .106.028.144.08.038.05.06.119.06.19v1.084c0 .072-.022.14-.06.192a.182.182 0 0 1-.144.079Z"/>
    <path fill="#EFEFEF" d="M24.037 11.781h-1.355a.313.313 0 0 1-.24-.119.45.45 0 0 1-.098-.287.45.45 0 0 1 .099-.287.313.313 0 0 1 .24-.12h1.354c.09 0 .175.044.239.12.063.076.099.18.099.287a.451.451 0 0 1-.1.287.313.313 0 0 1-.238.12ZM24.815 15.844h-1.49a.378.378 0 0 1-.263-.106.356.356 0 0 1-.109-.255v-.723h-1.862a.378.378 0 0 1-.263-.105.356.356 0 0 1 0-.511.378.378 0 0 1 .263-.106h2.235c.098 0 .193.038.263.106s.109.16.109.255v.723h.745v-1.084a.711.711 0 0 0-.218-.51.757.757 0 0 0-.527-.212H21.09a.379.379 0 0 1-.263-.106.356.356 0 0 1 0-.51.379.379 0 0 1 .263-.106h2.607c.395 0 .774.152 1.053.423.28.27.436.638.436 1.021v1.445c0 .095-.039.187-.109.255a.378.378 0 0 1-.263.106Z"/>
    <path fill="#F2C247" d="M16.656 4.17a21.489 21.489 0 0 0-9.343 0v14.814c1.53.346 3.098.52 4.671.516 1.574.003 3.142-.17 4.672-.517V4.17ZM3.356 5.77c-.28.158-.512.385-.673.657-.16.272-.246.58-.245.894v8.515c0 .313.084.621.245.893.161.272.393.5.673.658a14.67 14.67 0 0 0 1.925.894V4.875c-.663.252-1.307.55-1.925.894ZM20.613 5.769a14.684 14.684 0 0 0-1.925-.894v13.406c.663-.252 1.307-.55 1.925-.894.28-.159.512-.386.673-.658.16-.272.245-.58.245-.893V7.32c0-.313-.084-.621-.245-.894a1.831 1.831 0 0 0-.673-.657Z"/>
    <path fill="#141414" d="M11.983 15.031a48.49 48.49 0 0 1-4.347-.19.379.379 0 0 1-.242-.112.285.285 0 0 1-.08-.229.303.303 0 0 1 .13-.21.399.399 0 0 1 .264-.07c2.842.247 5.705.247 8.547 0a.411.411 0 0 1 .267.067.328.328 0 0 1 .09.094.282.282 0 0 1 .03.239.303.303 0 0 1-.067.108.355.355 0 0 1-.11.078.402.402 0 0 1-.135.035 48.49 48.49 0 0 1-4.347.19ZM16.277 8.935a32.921 32.921 0 0 0-8.564-.003.279.279 0 0 1-.14-.015.339.339 0 0 1-.126-.085.46.46 0 0 1-.09-.14.574.574 0 0 1-.03-.359.527.527 0 0 1 .067-.162.398.398 0 0 1 .109-.116.3.3 0 0 1 .135-.053 33.367 33.367 0 0 1 8.677 0 .334.334 0 0 1 .248.153.56.56 0 0 1 .093.338.536.536 0 0 1-.118.324.313.313 0 0 1-.259.12l-.002-.002ZM18.606 14.625a.33.33 0 0 1-.22-.084.31.31 0 0 1-.037-.426.326.326 0 0 1 .203-.118c.364-.06.683-.12.962-.178a.332.332 0 0 1 .245.045.316.316 0 0 1 .14.2.308.308 0 0 1-.045.237.325.325 0 0 1-.206.137c-.285.059-.614.12-.987.183a.37.37 0 0 1-.055.004ZM19.582 9.344a.355.355 0 0 1-.068-.007 24.441 24.441 0 0 0-.962-.178.326.326 0 0 1-.21-.129.31.31 0 0 1 .076-.44.332.332 0 0 1 .243-.054c.373.063.702.124.988.182.078.017.148.06.195.124a.31.31 0 0 1-.045.42.33.33 0 0 1-.217.082ZM5.363 14.625a.37.37 0 0 1-.055-.004 28.957 28.957 0 0 1-.988-.183.325.325 0 0 1-.205-.137.309.309 0 0 1 .095-.437.333.333 0 0 1 .245-.045c.278.058.598.118.962.178.08.014.152.056.202.118a.31.31 0 0 1-.036.426.33.33 0 0 1-.22.084ZM4.384 9.344a.326.326 0 0 1-.215-.082.313.313 0 0 1-.045-.419.323.323 0 0 1 .194-.123c.283-.058.609-.12.98-.182a.33.33 0 0 1 .338.138.31.31 0 0 1-.109.443.327.327 0 0 1-.123.04c-.36.06-.676.12-.953.177a.35.35 0 0 1-.067.008Z"/>
    <path fill="#EFEFEF" d="M16.25 19.5a.434.434 0 0 1-.287-.105.34.34 0 0 1-.12-.255V4.016a.34.34 0 0 1 .12-.254.434.434 0 0 1 .287-.106c.108 0 .211.038.287.106a.34.34 0 0 1 .12.254V19.14a.34.34 0 0 1-.12.255.434.434 0 0 1-.287.105ZM7.719 19.5a.434.434 0 0 1-.288-.105.34.34 0 0 1-.119-.255V4.016a.34.34 0 0 1 .12-.254.434.434 0 0 1 .287-.106c.107 0 .21.038.287.106a.34.34 0 0 1 .119.254V19.14a.34.34 0 0 1-.119.255.434.434 0 0 1-.287.105ZM18.688 18.688a.43.43 0 0 1-.288-.108.349.349 0 0 1-.119-.258V4.428c0-.097.043-.19.12-.258a.43.43 0 0 1 .287-.107.43.43 0 0 1 .287.107.348.348 0 0 1 .119.258v13.894c0 .097-.043.19-.12.258a.43.43 0 0 1-.287.108ZM5.281 18.688a.43.43 0 0 1-.287-.108.348.348 0 0 1-.119-.258V4.428c0-.097.043-.19.119-.258a.43.43 0 0 1 .287-.107.43.43 0 0 1 .288.107.348.348 0 0 1 .119.258v13.894c0 .097-.043.19-.12.258a.43.43 0 0 1-.287.108Z"/>
    <path fill="#EFEFEF" d="M19.95 22.344h-3.62a.36.36 0 0 1-.363-.366c0-.29-.114-.57-.318-.776a1.081 1.081 0 0 0-.768-.32H9.088c-.288 0-.565.115-.768.32a1.102 1.102 0 0 0-.319.776c0 .097-.038.19-.106.259a.36.36 0 0 1-.256.107H4.02a.36.36 0 0 1-.257-.107.368.368 0 0 1-.106-.259v-2.925c0-.097.038-.19.106-.258a.36.36 0 0 1 .618.258v2.56h2.933c.084-.413.307-.784.63-1.05a1.803 1.803 0 0 1 1.145-.413h5.793c.417 0 .822.146 1.145.413.323.266.545.637.63 1.05h2.932v-2.56c0-.097.038-.19.106-.258a.36.36 0 0 1 .619.258v2.925c0 .097-.039.19-.107.259a.36.36 0 0 1-.256.107Z"/>
</svg>
